assets/img/braze_icons/filter-funnel-02.svg

<svg fill="none" height="24" viewBox="0 0 24 24" width="24" xmlns="http://www.w3.org/2000/svg"><path clip-rule="evenodd" d="m4.53342 2h.04511 14.88807c.5284-.00002.9917-.00005 1.3551.03263.3488.03136.8273.10497 1.2151.42515.4816.39766.7498.9975.725 1.62158-.0199.50248-.2842.9082-.4933 1.18901-.218.29265-.5269.63784-.8793 1.03166l-5.7364 6.41117c-.0807.0903-.1207.1353-.1485.1692l-.0021.0025-.0001.0033c-.0019.0437-.0021.1039-.0021.2251v5.3471c0 .0109.0001.0237.0003.038.0014.1375.0045.4229-.0949.6894-.0836.2241-.2196.425-.3966.5858-.2105.1913-.4767.2945-.6049.3442-.0134.0052-.0252.0098-.0354.0138l-3.4279 1.3712c-.1589.0636-.3345.1339-.4895.1802-.1667.0497-.4405.1147-.75629.0491-.38702-.0804-.72666-.3104-.94506-.6398-.17823-.2689-.21954-.5473-.23526-.7205-.01461-.161-.01456-.3502-.0145-.5214v-6.7371c0-.1212-.00021-.1814-.00207-.2251l-.00015-.0033-.00205-.0025c-.02779-.0339-.0678-.0789-.14858-.1692l-5.70624-6.37753c-.01007-.01125-.0201-.02246-.03009-.03363-.3524-.39382-.66129-.73901-.87929-1.03167-.20918-.28081-.47341-.68653-.49337-1.18901-.02478-.62408.24341-1.22392.72503-1.62158.38777-.32018.86632-.39379 1.21507-.42515.36347-.03268.82668-.03265 1.35517-.03263z" fill="#801ed7" fill-rule="evenodd"/></svg>

<svg width="24" height="24" viewBox="0 0 24 24" fill="none" xmlns="http://www.w3.org/2000/svg">
<path fill-rule="evenodd" clip-rule="evenodd" d="M4.53342 2C4.5484 2 4.56344 2 4.57853 2L19.4666 2C19.995 1.99998 20.4583 1.99995 20.8217 2.03263C21.1705 2.06399 21.649 2.1376 22.0368 2.45778C22.5184 2.85544 22.7866 3.45528 22.7618 4.07936C22.7419 4.58184 22.4776 4.98756 22.2685 5.26837C22.0505 5.56102 21.7416 5.90621 21.3892 6.30003L15.6528 12.7112C15.5721 12.8015 15.5321 12.8465 15.5043 12.8804L15.5022 12.8829L15.5021 12.8862C15.5002 12.9299 15.5 12.9901 15.5 13.1113V18.4584C15.5 18.4693 15.5001 18.4821 15.5003 18.4964C15.5017 18.6339 15.5048 18.9193 15.4054 19.1858C15.3218 19.4099 15.1858 19.6108 15.0088 19.7716C14.7983 19.9629 14.5321 20.0661 14.4039 20.1158C14.3905 20.121 14.3787 20.1256 14.3685 20.1296L10.9406 21.5008C10.7817 21.5644 10.6061 21.6347 10.4511 21.681C10.2844 21.7307 10.0106 21.7957 9.69481 21.7301C9.30779 21.6497 8.96815 21.4197 8.74975 21.0903C8.57152 20.8214 8.53021 20.543 8.51449 20.3698C8.49988 20.2088 8.49993 20.0196 8.49999 19.8484L8.49999 13.1113C8.49999 12.9901 8.49978 12.9299 8.49792 12.8862L8.49777 12.8829L8.49572 12.8804C8.46793 12.8465 8.42792 12.8015 8.34714 12.7112L2.6409 6.33367C2.63083 6.32242 2.6208 6.31121 2.61081 6.30004C2.25841 5.90622 1.94952 5.56103 1.73152 5.26837C1.52234 4.98756 1.25811 4.58184 1.23815 4.07936C1.21337 3.45528 1.48156 2.85544 1.96318 2.45778C2.35095 2.1376 2.8295 2.06399 3.17825 2.03263C3.54172 1.99995 4.00493 1.99998 4.53342 2Z" fill="#801ED7"/>
</svg>
